icons/svg/printer.svg

<svg width="24" height="24" viewBox="0 0 24 24" fill="none" xmlns="http://www.w3.org/2000/svg">
<path d="M6.75 17V18.05C6.75 19.1701 6.75 19.7302 6.96799 20.158C7.15973 20.5343 7.46569 20.8403 7.84202 21.032C8.26984 21.25 8.82989 21.25 9.95 21.25H14.05C15.1701 21.25 15.7302 21.25 16.158 21.032C16.5343 20.8403 16.8403 20.5343 17.032 20.158C17.25 19.7302 17.25 19.1701 17.25 18.05V17M6.75 17V15.95C6.75 14.8299 6.75 14.2698 6.96799 13.842C7.15973 13.4657 7.46569 13.1597 7.84202 12.968C8.26984 12.75 8.8299 12.75 9.95 12.75H14.05C15.1701 12.75 15.7302 12.75 16.158 12.968C16.5343 13.1597 16.8403 13.4657 17.032 13.842C17.25 14.2698 17.25 14.8299 17.25 15.95V17M6.75 17H5.95C4.8299 17 4.26984 17 3.84202 16.782C3.46569 16.5903 3.15973 16.2843 2.96799 15.908C2.75 15.4802 2.75 14.9201 2.75 13.8V10.8C2.75 9.11984 2.75 8.27976 3.07698 7.63803C3.3646 7.07354 3.82354 6.6146 4.38803 6.32698C5.02976 6 5.86984 6 7.55 6H16.45C18.1302 6 18.9702 6 19.612 6.32698C20.1765 6.6146 20.6354 7.07354 20.923 7.63803C21.25 8.27976 21.25 9.11984 21.25 10.8V13.8C21.25 14.9201 21.25 15.4802 21.032 15.908C20.8403 16.2843 20.5343 16.5903 20.158 16.782C19.7302 17 19.1701 17 18.05 17H17.25" stroke="currentColor" stroke-width="1.5" stroke-linecap="round" stroke-linejoin="round"/>
<path d="M6.75 4.25C6.75 3.42157 7.42157 2.75 8.25 2.75H15.75C16.5784 2.75 17.25 3.42157 17.25 4.25V6H6.75V4.25Z" stroke="currentColor" stroke-width="1.5" stroke-linecap="round" stroke-linejoin="round"/>
</svg>

<svg xmlns="http://www.w3.org/2000/svg" width="24" height="24" fill="none" viewBox="0 0 24 24"><path stroke="currentColor" stroke-linecap="round" stroke-linejoin="round" stroke-width="1.5" d="M6.75 17v1.05c0 1.12 0 1.68.218 2.108a2 2 0 0 0 .874.874c.428.218.988.218 2.108.218h4.1c1.12 0 1.68 0 2.108-.218a2 2 0 0 0 .874-.874c.218-.428.218-.988.218-2.108V17m-10.5 0v-1.05c0-1.12 0-1.68.218-2.108a2 2 0 0 1 .874-.874c.428-.218.988-.218 2.108-.218h4.1c1.12 0 1.68 0 2.108.218a2 2 0 0 1 .874.874c.218.428.218.988.218 2.108V17m-10.5 0h-.8c-1.12 0-1.68 0-2.108-.218a2 2 0 0 1-.874-.874c-.218-.428-.218-.988-.218-2.108v-3c0-1.68 0-2.52.327-3.162a3 3 0 0 1 1.311-1.311C5.03 6 5.87 6 7.55 6h8.9c1.68 0 2.52 0 3.162.327a3 3 0 0 1 1.311 1.311c.327.642.327 1.482.327 3.162v3c0 1.12 0 1.68-.218 2.108a2 2 0 0 1-.874.874C19.73 17 19.17 17 18.05 17h-.8M6.75 4.25a1.5 1.5 0 0 1 1.5-1.5h7.5a1.5 1.5 0 0 1 1.5 1.5V6H6.75z"/></svg>
